contributed-vectors/tone_sphere.svg

<svg width="192" height="192" version="1.1" viewBox="0 0 192 192" xmlns="http://www.w3.org/2000/svg">
 <circle cx="96" cy="96" r="88" style="fill:#56595b;stroke-width:4"/>
 <path d="m110 60a36 36 0 0 0-26.766 12.047 24 24 0 0 0-1.2344-0.0468 24 24 0 0 0-17.976 8.1408 16 16 0 0 0-2.0234-0.1408 16 16 0 0 0-16 16 16 16 0 0 0 16 16 16 16 0 0 0 2.0078-0.1484 24 24 0 0 0 17.992 8.1484 24 24 0 0 0 1.1641-0.0548 36 36 0 0 0 26.836 12.055 36 36 0 0 0 36-36 36 36 0 0 0-36-36zm-14.664 16.07a20 20 0 0 1 18.664 19.93 20 20 0 0 1-18.695 19.953 24 24 0 0 0 10.695-19.953 24 24 0 0 0-10.664-19.93zm-15.266 0.04a36 36 0 0 0-4.8592 10.898 16 16 0 0 0-6.7968-5.6564 20 20 0 0 1 11.656-5.242zm7.9532 0.82032a20 20 0 0 1 13.976 19.07 20 20 0 0 1-14.031 19.07 20 20 0 0 1-12.211-10.938 16 16 0 0 0 2.2422-8.1328 16 16 0 0 0-2.2422-8.1248 20 20 0 0 1 12.266-10.945zm41.976 11.07a8 8 0 0 1 8 8 8 8 0 0 1-8 8 8 8 0 0 1-8-8 8 8 0 0 1 8-8zm-54.796 17.039a36 36 0 0 0 4.8204 10.859 20 20 0 0 1-11.617-5.258 16 16 0 0 0 6.7968-5.6016z" style="fill:#96dfd3;paint-order:stroke fill markers;stroke-width:4"/>
</svg>

<svg xmlns="http://www.w3.org/2000/svg" width="192" height="192"><circle cx="96" cy="96" r="88" style="fill:#56595b;stroke-width:4"/><path d="M110 60a36 36 0 0 0-26.766 12.047A24 24 0 0 0 82 72a24 24 0 0 0-17.976 8.141 16 16 0 0 0-2.024-.14 16 16 0 0 0-16 16 16 16 0 0 0 16 16 16 16 0 0 0 2.008-.15A24 24 0 0 0 82 120.002a24 24 0 0 0 1.164-.056A36 36 0 0 0 110 132a36 36 0 0 0 36-36 36 36 0 0 0-36-36zM95.336 76.07A20 20 0 0 1 114 96a20 20 0 0 1-18.695 19.953A24 24 0 0 0 106 96a24 24 0 0 0-10.664-19.93zm-15.266.04a36 36 0 0 0-4.86 10.898 16 16 0 0 0-6.796-5.656A20 20 0 0 1 80.07 76.11zm7.953.82A20 20 0 0 1 102 96a20 20 0 0 1-14.03 19.07 20 20 0 0 1-12.212-10.938A16 16 0 0 0 78 96a16 16 0 0 0-2.242-8.125A20 20 0 0 1 88.023 76.93zM130 88a8 8 0 0 1 8 8 8 8 0 0 1-8 8 8 8 0 0 1-8-8 8 8 0 0 1 8-8zm-54.796 17.04a36 36 0 0 0 4.82 10.858 20 20 0 0 1-11.616-5.258 16 16 0 0 0 6.796-5.601z" style="fill:#96dfd3;paint-order:stroke fill markers;stroke-width:4"/></svg>
